X: 1
T: Down the Rabbit Hole
C: Helen Powell (2005-3-22)
R: jig
Z: 2008 John Chambers <jc:trillian.mit.edu>
S: Personal communication
M: 6/8
L: 1/8
K: D
%%indent 500
"Intro"[| "Dm"c2A "G"B2A | "Dm"c2A "G"B2A ||
[|"D"DED DED | "G"Bz2 B2z | "D"DED DED | "G"B,6 \
| "D"DED DED | "B7"B3 "C"=c3 | "D"dcd "D/C"dcd | "D/B"dcd "D/A"dcd ||
||"G"gdB G2B | "C"=c3 c3 | "G"dBG D2B | "D"A6 \
| "G"gdB G2B | "C"=c3 "Am"e3 | "D"ded "C"=cBA | "G"G6 |]
[|"D"afd "A"GFE | "D"afd "A"EGE | "D"afd "A"EGC | "D"D6 \
| "D"afd "A"CDE | "D"afd "A"ECE | "D"afd "A"EGC | "D"D6 ||
||"Am"e2A "G"d2G | "Am"e2A "G"d2G | "D"afd "A"ecA | "G"BdG "D"FED \
| "G"EGF "A"EDC | "D"D6 | "Em"B,ED "A"CB,C | "D"D6 |]
